packages/match-icons/product/svg/lookup.svg

<svg fill="none" height="32" viewBox="0 0 32 32" width="32" xmlns="http://www.w3.org/2000/svg" xmlns:xlink="http://www.w3.org/1999/xlink"><clipPath id="a"><path d="m0 0h32v32h-32z"/></clipPath><g clip-path="url(#a)" fill="#394762"><path d="m12 15c1.6569 0 3-1.3431 3-3s-1.3431-3-3-3-3 1.3431-3 3 1.3431 3 3 3z"/><path d="m31.71 30.29-10.56-10.55c1.9999-2.3637 3.0087-5.4089 2.8157-8.4991-.193-3.09022-1.573-5.9862-3.8515-8.08263s-5.2791-3.2310408-8.3747-3.1666589c-3.09552.0643819-6.04638 1.3227689-8.23573 3.5121289-2.18936 2.18935-3.4477465 5.14021-3.51212838 8.23576-.06438182 3.0955 1.07022838 6.0962 3.16665838 8.3747 2.09643 2.2784 4.99241 3.6584 8.0826 3.8515 3.0902.193 6.1354-.8159 8.4991-2.8157l10.55 10.56c.093.0937.2036.1681.3254.2189.1219.0507.2526.0769.3846.0769s.2627-.0262.3846-.0769c.1218-.0508.2324-.1252.3254-.2189.0937-.093.1681-.2036.2189-.3255.0508-.1218.0769-.2525.0769-.3845 0-.1321-.0261-.2628-.0769-.3846-.0508-.1219-.1252-.2325-.2189-.3254zm-29.71001-18.29c0-1.9779.58649-3.91125 1.6853-5.55574 1.09882-1.64449 2.6606-2.92622 4.48787-3.6831 1.82724-.75687 3.83794-.95491 5.77774-.56905 1.9398.38585 3.7216 1.33826 5.1202 2.73678 1.3985 1.39853 2.3509 3.18036 2.7367 5.12021.3859 1.9398.1879 3.9504-.569 5.7777s-2.0386 3.389-3.6831 4.4879c-1.6445 1.0988-3.5779 1.6853-5.5557 1.6853-1.3132 0-2.61359-.2587-3.82684-.7612-1.21326-.5026-2.31565-1.2392-3.24424-2.1678-1.87536-1.8753-2.92893-4.4189-2.92893-7.071z"/></g></svg>

<svg width="32" height="32" viewBox="0 0 32 32" fill="none" xmlns="http://www.w3.org/2000/svg">
<g clip-path="url(#clip0)">
<path d="M12 15C13.6569 15 15 13.6569 15 12C15 10.3431 13.6569 9 12 9C10.3431 9 9 10.3431 9 12C9 13.6569 10.3431 15 12 15Z" fill="#394762"/>
<path d="M31.71 30.29L21.15 19.74C23.1499 17.3763 24.1587 14.3311 23.9657 11.2409C23.7727 8.15068 22.3927 5.2547 20.1142 3.15827C17.8357 1.06184 14.8351 -0.0727708 11.7395 -0.0083889C8.64398 0.055993 5.69312 1.31438 3.50377 3.50374C1.31441 5.69309 0.0560235 8.64395 -0.00835838 11.7395C-0.0727402 14.835 1.06187 17.8357 3.1583 20.1142C5.25473 22.3926 8.15071 23.7726 11.2409 23.9657C14.3311 24.1587 17.3763 23.1498 19.74 21.15L30.29 31.71C30.383 31.8037 30.4936 31.8781 30.6154 31.9289C30.7373 31.9796 30.868 32.0058 31 32.0058C31.132 32.0058 31.2627 31.9796 31.3846 31.9289C31.5064 31.8781 31.617 31.8037 31.71 31.71C31.8037 31.617 31.8781 31.5064 31.9289 31.3845C31.9797 31.2627 32.0058 31.132 32.0058 31C32.0058 30.8679 31.9797 30.7372 31.9289 30.6154C31.8781 30.4935 31.8037 30.3829 31.71 30.29V30.29ZM1.99999 12C1.99999 10.0221 2.58648 8.08875 3.68529 6.44426C4.78411 4.79977 6.34589 3.51804 8.17316 2.76116C10.0004 2.00429 12.0111 1.80625 13.9509 2.19211C15.8907 2.57796 17.6725 3.53037 19.0711 4.92889C20.4696 6.32742 21.422 8.10925 21.8078 10.0491C22.1937 11.9889 21.9957 13.9995 21.2388 15.8268C20.4819 17.6541 19.2002 19.2158 17.5557 20.3147C15.9112 21.4135 13.9778 22 12 22C10.6868 22 9.38641 21.7413 8.17316 21.2388C6.9599 20.7362 5.85751 19.9996 4.92892 19.071C3.05356 17.1957 1.99999 14.6521 1.99999 12V12Z" fill="#394762"/>
</g>
<defs>
<clipPath id="clip0">
<rect width="32" height="32" fill="white"/>
</clipPath>
</defs>
</svg>
